X: 19
T:Kilfinane, The
M:6/8
R:jig
K:G
FDE ~F2d|cAA BAG|FDE FdB|cAF GAG|\
FDE ~F2d|cAB cde|fef ded|cAF G2:|
e|fdd fed|cAB cde|fdd fed|cAF ~G2g|\
fdd fed|cAB cde|faf ded|cAF G2:|
A1/2B1/2|cAA fed|cAG ~A2B|cAA fed|cAF GAB|\
cAA fed|cAB cde|(4fgaf ded|cAF G2:|

